web/packages/design/src/ResourceIcon/assets/inkeep.svg

<svg width="72" height="72" viewBox="0 0 72 72" fill="none" xmlns="http://www.w3.org/2000/svg">
<path d="M72 9.55592V56.8159C72 59.4476 69.7396 61.531 67.1209 61.3117L38.1225 59.0638C34.7044 58.7897 31.2864 59.5572 28.3094 61.2294L18.3032 66.8491C17.4212 67.3425 16.4564 66.3283 17.0077 65.4784L22.0245 57.8302L26.683 50.7028C27.1792 49.9353 28.144 49.5789 29.026 49.853C36.3307 52.2105 44.6003 49.4966 48.9832 42.8079C54.2205 34.7759 51.9326 24.03 43.8836 18.8215C35.807 13.5856 25.0015 15.8884 19.7642 23.8929C15.3813 30.6091 16.2634 39.2168 21.3629 44.8913C21.9694 45.5766 22.0521 46.5909 21.5283 47.3584L15.6294 56.4048C15.271 56.9256 14.6646 57.2271 14.0306 57.1997L3.22511 56.3773C1.37825 56.2403 0 54.76 0 52.9507V13.3938C0 11.6119 1.37825 10.1042 3.19755 9.96712L67.1209 5.03278C69.7396 4.84089 72 6.92427 72 9.55592ZM34.3185 21.508C27.7305 21.508 22.3828 26.8261 22.3828 33.3778C22.3828 36.5577 23.6508 39.4635 25.7182 41.6017C26.9862 42.8902 28.5299 43.9044 30.2665 44.5349C31.5345 45.0009 32.8851 45.2477 34.3185 45.2477C40.9066 45.2477 46.2542 39.9295 46.2542 33.3778C46.2542 26.7987 40.9066 21.508 34.3185 21.508Z" fill="url(#paint0_linear_15942_7478)"/>
<defs>
<linearGradient id="paint0_linear_15942_7478" x1="3.57494" y1="57.1475" x2="54.0016" y2="22.9389" gradientUnits="userSpaceOnUse">
<stop stop-color="#00BFEA"/>
<stop offset="1" stop-color="#26D6FF"/>
</linearGradient>
</defs>
</svg>

<svg xmlns="http://www.w3.org/2000/svg" width="72" height="72" fill="none" viewBox="0 0 72 72"><path fill="url(#a)" d="M72 9.556v47.26c0 2.632-2.26 4.715-4.88 4.496l-28.998-2.248a17.24 17.24 0 0 0-9.813 2.165l-10.006 5.62c-.882.493-1.847-.52-1.295-1.37l5.017-7.649 4.658-7.127a2.07 2.07 0 0 1 2.343-.85c7.305 2.358 15.574-.356 19.957-7.045 5.238-8.032 2.95-18.778-5.1-23.986-8.076-5.236-18.882-2.934-24.119 5.07-4.383 6.717-3.5 15.325 1.599 21 .606.685.69 1.699.165 2.466l-5.899 9.047c-.358.52-.964.822-1.598.795l-10.806-.823C1.378 56.24 0 54.76 0 52.951V13.394a3.446 3.446 0 0 1 3.198-3.427L67.12 5.033C69.74 4.84 72 6.924 72 9.556M34.319 21.508c-6.589 0-11.936 5.318-11.936 11.87 0 3.18 1.268 6.086 3.335 8.224a12.25 12.25 0 0 0 4.549 2.933 11.7 11.7 0 0 0 4.052.713c6.588 0 11.935-5.318 11.935-11.87 0-6.58-5.347-11.87-11.935-11.87"/><defs><linearGradient id="a" x1="3.575" x2="54.002" y1="57.148" y2="22.939" gradientUnits="userSpaceOnUse"><stop stop-color="#00bfea"/><stop offset="1" stop-color="#26d6ff"/></linearGradient></defs></svg>
